public/google_cardboard/logo.svg

<?xml version="1.0" encoding="UTF-8" standalone="no"?>
<svg width="175px" height="30px" viewBox="0 0 175 30" version="1.1" xmlns="http://www.w3.org/2000/svg" xmlns:xlink="http://www.w3.org/1999/xlink">
    <!-- Generator: Sketch 41.2 (35397) - http://www.bohemiancoding.com/sketch -->
    <title>google_cardboard</title>
    <desc>Created with Sketch.</desc>
    <defs></defs>
    <g id="Page-1" stroke="none" stroke-width="1" fill="none" fill-rule="evenodd">
        <g id="google_cardboard" fill="#FF7143">
            <g>
                <path d="M69.3486328,18.0839844 L69.3740234,18.1601562 C69.4078778,19.895191 68.7985089,21.3466738 67.5458984,22.5146484 C66.293288,23.682623 64.6386822,24.2666016 62.5820312,24.2666016 C60.491526,24.2666016 58.7882553,23.5260491 57.472168,22.0449219 C56.1560807,20.5637947 55.4980469,18.6849072 55.4980469,16.4082031 L55.4980469,13.1201172 C55.4980469,10.8434131 56.1560807,8.96240977 57.472168,7.47705078 C58.7882553,5.99169179 60.491526,5.24902344 62.5820312,5.24902344 C64.6725365,5.24902344 66.3356058,5.80549574 67.5712891,6.91845703 C68.8069723,8.03141833 69.4078778,9.50617571 69.3740234,11.3427734 L69.3486328,11.4189453 L66.9492188,11.4189453 C66.9492188,10.124017 66.5683632,9.09993866 65.8066406,8.34667969 C65.0449181,7.59342071 63.970059,7.21679688 62.5820312,7.21679688 C61.1855399,7.21679688 60.0725953,7.77961677 59.2431641,8.90527344 C58.4137328,10.0309301 57.9990234,11.4274005 57.9990234,13.0947266 L57.9990234,16.4082031 C57.9990234,18.0924563 58.4137328,19.4973902 59.2431641,20.6230469 C60.0725953,21.7487035 61.1855399,22.3115234 62.5820312,22.3115234 C63.970059,22.3115234 65.0449181,21.9370155 65.8066406,21.1879883 C66.5683632,20.4389611 66.9492188,19.4043035 66.9492188,18.0839844 L69.3486328,18.0839844 Z M80.7236328,24 C80.638997,23.5852844 80.5734052,23.2192399 80.5268555,22.9018555 C80.4803058,22.5844711 80.4527995,22.2649756 80.4443359,21.9433594 C79.9788388,22.6035189 79.3715858,23.1557595 78.6225586,23.6000977 C77.8735314,24.0444358 77.0673871,24.2666016 76.2041016,24.2666016 C74.7737559,24.2666016 73.6840858,23.900557 72.9350586,23.168457 C72.1860314,22.436357 71.8115234,21.4270898 71.8115234,20.140625 C71.8115234,18.8287695 72.3426054,17.8025753 73.4047852,17.0620117 C74.4669649,16.3214481 75.9078685,15.9511719 77.7275391,15.9511719 L80.4443359,15.9511719 L80.4443359,14.5927734 C80.4443359,13.788733 80.1988957,13.1518578 79.7080078,12.6821289 C79.2171199,12.2124 78.5231165,11.9775391 77.6259766,11.9775391 C76.8134725,11.9775391 76.1575546,12.180662 75.6582031,12.5869141 C75.1588517,12.9931661 74.9091797,13.4798149 74.9091797,14.046875 L72.5351562,14.0722656 L72.5097656,13.9960938 C72.4505205,12.9973908 72.9181265,12.0833375 73.9125977,11.2539062 C74.9070688,10.424475 76.1913984,10.0097656 77.765625,10.0097656 C79.3229245,10.0097656 80.5755161,10.4054322 81.5234375,11.1967773 C82.4713589,11.9881224 82.9453125,13.1285733 82.9453125,14.6181641 L82.9453125,21.2324219 C82.9453125,21.7233097 82.9707029,22.1972633 83.0214844,22.6542969 C83.0722659,23.1113304 83.1653639,23.5598936 83.3007812,24 L80.7236328,24 Z M76.5722656,22.171875 C77.4778691,22.171875 78.2945927,21.9391299 79.0224609,21.4736328 C79.7503292,21.0081357 80.2242828,20.4749379 80.4443359,19.8740234 L80.4443359,17.6396484 L77.6386719,17.6396484 C76.6315054,17.6396484 75.8253611,17.8935521 75.2202148,18.4013672 C74.6150686,18.9091822 74.3125,19.5058559 74.3125,20.1914062 C74.3125,20.8007843 74.5029278,21.2832013 74.8837891,21.6386719 C75.2646503,21.9941424 75.8274702,22.171875 76.5722656,22.171875 Z M93.0761719,12.4726562 L91.7939453,12.3964844 C91.1337858,12.3964844 90.5773135,12.5530583 90.1245117,12.8662109 C89.67171,13.1793635 89.3225924,13.6194633 89.0771484,14.1865234 L89.0771484,24 L86.5761719,24 L86.5761719,10.2636719 L88.8105469,10.2636719 L89.0517578,12.2695312 C89.4410827,11.5585902 89.9213839,11.0042338 90.4926758,10.6064453 C91.0639677,10.2086569 91.7220015,10.0097656 92.4667969,10.0097656 C92.6529957,10.0097656 92.8307283,10.0245767 93,10.0541992 C93.1692717,10.0838218 93.3089187,10.1155597 93.4189453,10.1494141 L93.0761719,12.4726562 Z M95.1074219,17.3857422 C95.1074219,15.1767468 95.5792596,13.3951891 96.5229492,12.0410156 C97.4666388,10.6868422 98.789054,10.0097656 100.490234,10.0097656 C101.294275,10.0097656 102.007321,10.1578761 102.629395,10.4541016 C103.251468,10.750327 103.78255,11.1819633 104.222656,11.7490234 L104.222656,4.1953125 L106.723633,4.1953125 L106.723633,24 L104.806641,24 L104.425781,22.2607422 C103.977211,22.9209017 103.422855,23.4202457 102.762695,23.7587891 C102.102536,24.0973324 101.336593,24.2666016 100.464844,24.2666016 C98.7890541,24.2666016 97.4772183,23.6593485 96.5292969,22.4448242 C95.5813755,21.2302999 95.1074219,19.6328224 95.1074219,17.6523438 L95.1074219,17.3857422 Z M97.6083984,17.6523438 C97.6083984,19.0403715 97.8919242,20.1512003 98.4589844,20.9848633 C99.0260445,21.8185263 99.906244,22.2353516 101.099609,22.2353516 C101.844405,22.2353516 102.470701,22.0660824 102.978516,21.7275391 C103.486331,21.3889957 103.90104,20.9150421 104.222656,20.3056641 L104.222656,13.8945312 C103.90104,13.3274711 103.484215,12.876792 102.972168,12.5424805 C102.460121,12.2081689 101.844405,12.0410156 101.125,12.0410156 C99.9231711,12.0410156 99.036624,12.5361279 98.465332,13.5263672 C97.8940401,14.5166065 97.6083984,15.803052 97.6083984,17.3857422 L97.6083984,17.6523438 Z M122.186523,17.6523438 C122.186523,19.6328224 121.710454,21.2302999 120.758301,22.4448242 C119.806148,23.6593485 118.496428,24.2666016 116.829102,24.2666016 C115.915034,24.2666016 115.121585,24.0867531 114.44873,23.7270508 C113.775876,23.3673485 113.219403,22.8362665 112.779297,22.1337891 L112.373047,24 L110.456055,24 L110.456055,4.1953125 L112.957031,4.1953125 L112.957031,11.8886719 C113.388674,11.2792938 113.923988,10.8138037 114.562988,10.4921875 C115.201989,10.1705713 115.948889,10.0097656 116.803711,10.0097656 C118.496428,10.0097656 119.816727,10.6868422 120.764648,12.0410156 C121.71257,13.3951891 122.186523,15.1767468 122.186523,17.3857422 L122.186523,17.6523438 Z M119.685547,17.3857422 C119.685547,15.8115156 119.395673,14.527186 118.815918,13.5327148 C118.236162,12.5382437 117.353847,12.0410156 116.168945,12.0410156 C115.398759,12.0410156 114.749189,12.2293275 114.220215,12.605957 C113.691241,12.9825865 113.270184,13.4882781 112.957031,14.1230469 L112.957031,20.0771484 C113.278647,20.7542352 113.699704,21.2832012 114.220215,21.6640625 C114.740725,22.0449238 115.398759,22.2353516 116.194336,22.2353516 C117.370774,22.2353516 118.246742,21.8164104 118.822266,20.9785156 C119.397789,20.1406208 119.685547,19.0319079 119.685547,17.6523438 L119.685547,17.3857422 Z M124.649414,17.0048828 C124.649414,14.9736227 125.199539,13.299974 126.299805,11.9838867 C127.400071,10.6677994 128.893871,10.0097656 130.78125,10.0097656 C132.685556,10.0097656 134.189936,10.6656835 135.294434,11.9775391 C136.398931,13.2893946 136.951172,14.9651591 136.951172,17.0048828 L136.951172,17.2841797 C136.951172,19.332367 136.401047,21.0081315 135.300781,22.3115234 C134.200515,23.6149154 132.702483,24.2666016 130.806641,24.2666016 C128.910798,24.2666016 127.41065,23.6127995 126.306152,22.3051758 C125.201655,20.9975521 124.649414,19.3239034 124.649414,17.2841797 L124.649414,17.0048828 Z M127.150391,17.2841797 C127.150391,18.7399161 127.457191,19.941727 128.070801,20.8896484 C128.684411,21.8375698 129.596348,22.3115234 130.806641,22.3115234 C132.000006,22.3115234 132.905596,21.8375698 133.523438,20.8896484 C134.141279,19.941727 134.450195,18.7399161 134.450195,17.2841797 L134.450195,17.0048828 C134.450195,15.5660735 134.139163,14.3684944 133.51709,13.4121094 C132.895016,12.4557244 131.983079,11.9775391 130.78125,11.9775391 C129.587885,11.9775391 128.684411,12.4557244 128.070801,13.4121094 C127.457191,14.3684944 127.150391,15.5660735 127.150391,17.0048828 L127.150391,17.2841797 Z M148.453125,24 C148.368489,23.5852844 148.302897,23.2192399 148.256348,22.9018555 C148.209798,22.5844711 148.182292,22.2649756 148.173828,21.9433594 C147.708331,22.6035189 147.101078,23.1557595 146.352051,23.6000977 C145.603024,24.0444358 144.796879,24.2666016 143.933594,24.2666016 C142.503248,24.2666016 141.413578,23.900557 140.664551,23.168457 C139.915524,22.436357 139.541016,21.4270898 139.541016,20.140625 C139.541016,18.8287695 140.072098,17.8025753 141.134277,17.0620117 C142.196457,16.3214481 143.637361,15.9511719 145.457031,15.9511719 L148.173828,15.9511719 L148.173828,14.5927734 C148.173828,13.788733 147.928388,13.1518578 147.4375,12.6821289 C146.946612,12.2124 146.252609,11.9775391 145.355469,11.9775391 C144.542965,11.9775391 143.887047,12.180662 143.387695,12.5869141 C142.888344,12.9931661 142.638672,13.4798149 142.638672,14.046875 L140.264648,14.0722656 L140.239258,13.9960938 C140.180013,12.9973908 140.647619,12.0833375 141.64209,11.2539062 C142.636561,10.424475 143.920891,10.0097656 145.495117,10.0097656 C147.052417,10.0097656 148.305008,10.4054322 149.25293,11.1967773 C150.200851,11.9881224 150.674805,13.1285733 150.674805,14.6181641 L150.674805,21.2324219 C150.674805,21.7233097 150.700195,22.1972633 150.750977,22.6542969 C150.801758,23.1113304 150.894856,23.5598936 151.030273,24 L148.453125,24 Z M144.301758,22.171875 C145.207361,22.171875 146.024085,21.9391299 146.751953,21.4736328 C147.479821,21.0081357 147.953775,20.4749379 148.173828,19.8740234 L148.173828,17.6396484 L145.368164,17.6396484 C144.360998,17.6396484 143.554853,17.8935521 142.949707,18.4013672 C142.344561,18.9091822 142.041992,19.5058559 142.041992,20.1914062 C142.041992,20.8007843 142.23242,21.2832013 142.613281,21.6386719 C142.994143,21.9941424 143.556962,22.171875 144.301758,22.171875 Z M160.805664,12.4726562 L159.523438,12.3964844 C158.863278,12.3964844 158.306806,12.5530583 157.854004,12.8662109 C157.401202,13.1793635 157.052085,13.6194633 156.806641,14.1865234 L156.806641,24 L154.305664,24 L154.305664,10.2636719 L156.540039,10.2636719 L156.78125,12.2695312 C157.170575,11.5585902 157.650876,11.0042338 158.222168,10.6064453 C158.79346,10.2086569 159.451494,10.0097656 160.196289,10.0097656 C160.382488,10.0097656 160.560221,10.0245767 160.729492,10.0541992 C160.898764,10.0838218 161.038411,10.1155597 161.148438,10.1494141 L160.805664,12.4726562 Z M162.836914,17.3857422 C162.836914,15.1767468 163.308752,13.3951891 164.252441,12.0410156 C165.196131,10.6868422 166.518546,10.0097656 168.219727,10.0097656 C169.023767,10.0097656 169.736813,10.1578761 170.358887,10.4541016 C170.98096,10.750327 171.512042,11.1819633 171.952148,11.7490234 L171.952148,4.1953125 L174.453125,4.1953125 L174.453125,24 L172.536133,24 L172.155273,22.2607422 C171.706703,22.9209017 171.152347,23.4202457 170.492188,23.7587891 C169.832028,24.0973324 169.066085,24.2666016 168.194336,24.2666016 C166.518546,24.2666016 165.20671,23.6593485 164.258789,22.4448242 C163.310868,21.2302999 162.836914,19.6328224 162.836914,17.6523438 L162.836914,17.3857422 Z M165.337891,17.6523438 C165.337891,19.0403715 165.621416,20.1512003 166.188477,20.9848633 C166.755537,21.8185263 167.635736,22.2353516 168.829102,22.2353516 C169.573897,22.2353516 170.200193,22.0660824 170.708008,21.7275391 C171.215823,21.3889957 171.630532,20.9150421 171.952148,20.3056641 L171.952148,13.8945312 C171.630532,13.3274711 171.213707,12.876792 170.70166,12.5424805 C170.189613,12.2081689 169.573897,12.0410156 168.854492,12.0410156 C167.652663,12.0410156 166.766116,12.5361279 166.194824,13.5263672 C165.623532,14.5166065 165.337891,15.803052 165.337891,17.3857422 L165.337891,17.6523438 Z" id="Cardboard"></path>
                <path d="M32.7080769,19.7165385 C29.9526923,19.7165385 27.7234615,17.5357692 27.7234615,14.8461538 C27.7234615,12.1548077 29.9526923,9.97403846 32.7080769,9.97403846 C35.4634615,9.97403846 37.6961538,12.1548077 37.6961538,14.8461538 C37.6961538,17.5375 35.4634615,19.7165385 32.7080769,19.7165385 M12.2936538,19.7165385 C9.53653846,19.7165385 7.30384615,17.5409615 7.30384615,14.8461538 C7.30384615,12.1513462 9.53653846,9.97230769 12.2936538,9.97230769 C15.0507692,9.97230769 17.2782692,12.1530769 17.2782692,14.8461538 C17.2782692,17.5392308 15.0455769,19.7182692 12.2936538,19.7182692 M42.1701923,1 L2.71211538,1 C1.24096154,1 0,2.21153846 0,3.70865385 L0,25.9836538 C0,27.4807692 1.24096154,28.6923077 2.76923077,28.6923077 L13.5519231,28.6923077 C14.7063462,28.6923077 15.6980769,28 16.1134615,27.0186538 L19.2461538,19.6213462 C19.7740385,18.3751923 21.0323077,17.4925 22.5,17.4925 C23.9676923,17.4925 25.2259615,18.37 25.7538462,19.6161538 L28.8865385,27.0117308 C29.3053846,27.9982692 30.2936538,28.6871154 31.3926923,28.6871154 L42.1701923,28.6871154 C43.7625,28.6871154 45,27.4755769 45,25.9784615 L45,3.70865385 C45,2.21153846 43.7607692,1 42.1701923,1" id="Shape"></path>
            </g>
        </g>
    </g>
</svg>

<svg xmlns="http://www.w3.org/2000/svg" viewBox="0 0 175 30">
  <g fill="#FF7143" fill-rule="evenodd">
    <path d="M69.35 18.084l.024.076c.034 1.735-.575 3.187-1.828 4.355-1.253 1.168-2.907 1.752-4.964 1.752-2.09 0-3.794-.74-5.11-2.222-1.316-1.48-1.974-3.36-1.974-5.637V13.12c0-2.277.658-4.158 1.974-5.643 1.316-1.485 3.02-2.228 5.11-2.228 2.09 0 3.754.555 4.99 1.668 1.235 1.113 1.836 2.588 1.802 4.425l-.025.076h-2.4c0-1.296-.382-2.32-1.143-3.073-.762-.754-1.837-1.13-3.225-1.13-1.396 0-2.51.563-3.34 1.688C58.415 10.03 58 11.427 58 13.095v3.313c0 1.684.414 3.09 1.243 4.215.83 1.126 1.943 1.69 3.34 1.69 1.387 0 2.462-.376 3.224-1.125.76-.75 1.142-1.784 1.142-3.104h2.4zM80.723 24c-.085-.415-.15-.78-.197-1.098-.047-.318-.074-.637-.083-.96-.465.662-1.072 1.214-1.82 1.658-.75.444-1.557.667-2.42.667-1.43 0-2.52-.366-3.27-1.1-.748-.73-1.122-1.74-1.122-3.026 0-1.31.53-2.337 1.593-3.078 1.062-.74 2.503-1.11 4.323-1.11h2.716v-1.36c0-.803-.245-1.44-.736-1.91-.49-.47-1.185-.704-2.082-.704-.813 0-1.468.203-1.968.61-.5.405-.75.892-.75 1.46l-2.373.024-.025-.076c-.06-1 .408-1.913 1.403-2.742.994-.83 2.278-1.244 3.853-1.244 1.557 0 2.81.395 3.757 1.187.948.79 1.422 1.932 1.422 3.42v6.615c0 .49.026.965.076 1.422.052.457.145.906.28 1.346h-2.576zm-4.152-1.828c.906 0 1.723-.233 2.45-.698.728-.466 1.202-1 1.422-1.6V17.64H77.64c-1.008 0-1.815.254-2.42.76-.605.51-.907 1.106-.907 1.79 0 .61.19 1.093.57 1.45.382.354.944.532 1.69.532zm16.504-9.7l-1.282-.076c-.66 0-1.217.157-1.67.47-.452.313-.8.753-1.047 1.32V24h-2.5V10.264h2.234l.242 2.006c.39-.71.87-1.266 1.44-1.664.572-.397 1.23-.596 1.975-.596.186 0 .364.015.533.044.17.03.31.062.42.095l-.344 2.323zm2.03 4.914c0-2.21.473-3.99 1.417-5.345.944-1.353 2.266-2.03 3.967-2.03.804 0 1.517.148 2.14.444.62.296 1.153.728 1.593 1.295V4.194h2.5V24h-1.916l-.38-1.74c-.45.66-1.004 1.16-1.664 1.5-.66.337-1.426.507-2.298.507-1.676 0-2.988-.608-3.936-1.822-.95-1.215-1.423-2.812-1.423-4.793v-.266zm2.502.266c0 1.388.284 2.5.85 3.333.568.834 1.448 1.25 2.642 1.25.744 0 1.37-.17 1.88-.507.506-.34.92-.813 1.243-1.422v-6.41c-.322-.57-.74-1.02-1.25-1.354-.513-.334-1.13-.5-1.848-.5-1.202 0-2.088.494-2.66 1.484-.57.99-.857 2.277-.857 3.86v.266zm24.58 0c0 1.98-.478 3.578-1.43 4.793-.952 1.214-2.262 1.822-3.93 1.822-.913 0-1.706-.18-2.38-.54-.672-.36-1.23-.89-1.67-1.593L112.374 24h-1.917V4.195h2.5v7.694c.433-.61.968-1.076 1.607-1.398.64-.32 1.386-.482 2.24-.482 1.693 0 3.014.677 3.962 2.03.948 1.355 1.422 3.137 1.422 5.346v.266zm-2.502-.266c0-1.574-.29-2.86-.87-3.853-.58-.995-1.462-1.492-2.647-1.492-.77 0-1.42.19-1.95.566-.53.377-.95.882-1.263 1.517v5.954c.322.677.743 1.206 1.263 1.587.52.38 1.18.57 1.974.57 1.177 0 2.053-.418 2.628-1.255.576-.84.864-1.948.864-3.328v-.266zm4.963-.38c0-2.032.55-3.706 1.65-5.022 1.1-1.316 2.594-1.974 4.48-1.974 1.906 0 3.41.656 4.514 1.968 1.105 1.31 1.657 2.987 1.657 5.027v.28c0 2.047-.55 3.723-1.65 5.027-1.1 1.303-2.598 1.955-4.493 1.955-1.896 0-3.396-.654-4.5-1.962-1.105-1.307-1.658-2.98-1.658-5.02v-.28zm2.5.278c0 1.456.307 2.658.92 3.606.614.948 1.526 1.422 2.737 1.422 1.193 0 2.1-.474 2.716-1.422.618-.948.927-2.15.927-3.606v-.28c0-1.438-.31-2.636-.933-3.592-.622-.956-1.534-1.434-2.736-1.434-1.192 0-2.096.478-2.71 1.434-.613.956-.92 2.154-.92 3.593v.28zM148.453 24c-.085-.415-.15-.78-.197-1.098-.046-.318-.074-.637-.082-.96-.466.662-1.073 1.214-1.822 1.658-.75.444-1.555.667-2.418.667-1.43 0-2.52-.366-3.27-1.1-.748-.73-1.123-1.74-1.123-3.026 0-1.31.532-2.337 1.594-3.078 1.062-.74 2.503-1.11 4.323-1.11h2.717v-1.36c0-.803-.246-1.44-.737-1.91-.49-.47-1.184-.704-2.082-.704-.812 0-1.468.203-1.967.61-.5.405-.75.892-.75 1.46l-2.373.024-.026-.076c-.06-1 .408-1.913 1.402-2.742.995-.83 2.28-1.244 3.853-1.244 1.557 0 2.81.395 3.758 1.187.948.79 1.422 1.932 1.422 3.42v6.615c0 .49.025.965.076 1.422.052.457.145.906.28 1.346h-2.577zm-4.15-1.828c.904 0 1.72-.233 2.45-.698.727-.466 1.2-1 1.42-1.6V17.64h-2.805c-1.007 0-1.813.254-2.418.76-.605.51-.908 1.106-.908 1.79 0 .61.19 1.093.57 1.45.382.354.945.532 1.69.532zm16.503-9.7l-1.283-.076c-.66 0-1.216.157-1.67.47-.452.313-.8.753-1.046 1.32V24h-2.5V10.264h2.233l.24 2.006c.39-.71.87-1.266 1.442-1.664.57-.397 1.23-.596 1.974-.596.186 0 .364.015.533.044.17.03.308.062.418.095l-.342 2.323zm2.03 4.914c0-2.21.473-3.99 1.416-5.345.944-1.353 2.267-2.03 3.968-2.03.804 0 1.517.148 2.14.444.62.296 1.152.728 1.592 1.295V4.194h2.5V24h-1.916l-.38-1.74c-.45.66-1.004 1.16-1.664 1.5-.66.337-1.426.507-2.298.507-1.675 0-2.987-.608-3.935-1.822-.95-1.215-1.423-2.812-1.423-4.793v-.266zm2.502.266c0 1.388.283 2.5.85 3.333.568.834 1.448 1.25 2.64 1.25.746 0 1.372-.17 1.88-.507.508-.34.923-.813 1.244-1.422v-6.41c-.32-.57-.738-1.02-1.25-1.354-.512-.334-1.128-.5-1.848-.5-1.2 0-2.088.494-2.66 1.484-.57.99-.856 2.277-.856 3.86v.266zM32.708 19.717c-2.755 0-4.985-2.18-4.985-4.87 0-2.692 2.23-4.873 4.985-4.873 2.755 0 4.988 2.18 4.988 4.872 0 2.692-2.233 4.87-4.988 4.87m-20.414 0c-2.757 0-4.99-2.175-4.99-4.87 0-2.695 2.233-4.874 4.99-4.874s4.984 2.18 4.984 4.874c0 2.693-2.232 4.872-4.984 4.872M42.17 1H2.712C1.242 1 0 2.212 0 3.71v22.274c0 1.497 1.24 2.708 2.77 2.708H13.55c1.154 0 2.146-.692 2.56-1.673l3.134-7.4c.528-1.245 1.786-2.128 3.254-2.128s2.726.878 3.254 2.124l3.133 7.396c.418.986 1.407 1.675 2.506 1.675H42.17c1.593 0 2.83-1.21 2.83-2.71V3.71C45 2.21 43.76 1 42.17 1"/>
  </g>
</svg>
